img/vad/AboutServices3.svg

<svg width="83" height="84" xmlns="http://www.w3.org/2000/svg" fill="none">

 <g>
  <title>Layer 1</title>
  <path id="svg_1" fill="#0485FE" d="m81.7059,9.69778l-23.5195,0l0,-4.78276c0,-2.61599 -2.1144,-4.74754 -4.7092,-4.74754l-23.9389,0c-2.5949,0 -4.7092,2.13155 -4.7092,4.74754l0,4.78276l-23.53706,0c-0.62905,0 -1.13579,0.51092 -1.13579,1.14502l0,19.3161c0,0.4932 0.31453,0.9336 0.77758,1.0834l2.12305,0.7134l0,36.7295c0,0.6342 0.50674,1.1451 1.13579,1.1451l31.34783,0l0,7.2402c0,3.5585 2.8656,6.4475 6.3953,6.4475c3.5297,0 6.3954,-2.889 6.3954,-6.4475l0,-7.2402l30.4654,0c0.629,0 1.1358,-0.5109 1.1358,-1.1451l0,-36.7295l2.123,-0.7134c0.4631,-0.1586 0.7776,-0.5902 0.7776,-1.0834l0,-19.3161c0,-0.6341 -0.5067,-1.14502 -1.1358,-1.14502l0.0087,0zm-54.6227,-4.78276c0,-1.35644 1.0921,-2.45745 2.4376,-2.45745l23.9389,0c1.3455,0 2.4376,1.10101 2.4376,2.45745l0,4.78276l-28.8141,0l0,-4.78276zm-21.75474,62.61638l0,-34.8182l14.61674,4.8973c-0.2971,5.9454 1.7736,11.9789 6.2643,16.5062c3.2152,3.2414 7.2603,5.3289 11.655,6.0688l0,4.5714l-1.197,0c-0.629,0 -1.1358,0.5108 -1.1358,1.145l0,1.6207l-30.20324,0l0,0.0088zm49.84364,-15.0353c-3.652,3.6817 -8.5096,5.7164 -13.6818,5.7164c-5.1635,0 -10.0212,-2.0259 -13.6732,-5.7076c-7.5399,-7.6014 -7.5399,-19.9679 0,-27.578c3.652,-3.6818 8.5097,-5.7164 13.6819,-5.7164c5.1635,0 10.0211,2.0258 13.6731,5.7076c7.5399,7.6013 7.5312,19.9678 0,27.578zm-11.4365,7.9977l0,4.2631l-3.5996,0l0,-4.2631l1.3106,0c0,0 0.0262,0 0.0349,0c0,0 0.0262,0 0.035,0l2.2104,0l0.0087,0zm2.324,16.5591c0,2.2901 -1.8522,4.1574 -4.1238,4.1574c-2.2716,0 -4.1238,-1.8673 -4.1238,-4.1574l0,-10.0059l8.2476,0l0,10.0059zm31.6012,-9.5303l-29.3296,0l0,-1.6207c0,-0.6342 -0.5067,-1.145 -1.1358,-1.145l-1.1882,0l0,-4.7476c4.0539,-0.8632 7.7758,-2.8802 10.7725,-5.9014c4.4908,-4.5273 6.5614,-10.5696 6.2731,-16.5062l14.6167,-4.8973l0,34.8182l-0.0087,0zm2.9006,-38.2093l-17.7533,5.9542c-0.6902,-4.3864 -2.6822,-8.6054 -6.0284,-11.9789c-4.0801,-4.1134 -9.5057,-6.377 -15.272,-6.377c-5.775,0 -11.2006,2.2724 -15.2807,6.3858c-3.3462,3.3735 -5.3382,7.5837 -6.0284,11.9701l-17.76203,-5.9542l0,-17.3254l78.13353,0l0,17.343l-0.0087,-0.0176zm-50.3941,-2.0347c-3.0229,3.0476 -4.6917,7.1081 -4.6917,11.4241c0,4.3159 1.6688,8.3676 4.6917,11.424c3.023,3.0476 7.0506,4.7299 11.3317,4.7299c4.281,0 8.3,-1.6823 11.3317,-4.7299c6.2468,-6.2978 6.2468,-16.5415 0,-22.8393c-6.2469,-6.2977 -16.4166,-6.2977 -22.6547,0l-0.0087,-0.0088zm21.0558,21.2274c-2.5948,2.616 -6.0546,4.0605 -9.7241,4.0605c-3.6695,0 -7.1293,-1.4445 -9.7241,-4.0605c-2.5949,-2.616 -4.0277,-6.104 -4.0277,-9.8033c0,-3.6994 1.4328,-7.1874 4.0277,-9.8034c2.6822,-2.7041 6.2031,-4.0517 9.7241,-4.0517c3.5209,0 7.0419,1.3476 9.7241,4.0517c5.3644,5.4082 5.3644,14.1986 0,19.6067zm-12.4063,-13.6524c0,1.4885 1.2057,2.704 2.6822,2.704c2.7259,0 4.9538,2.2373 4.9538,4.9942c0,2.3605 -1.6338,4.3335 -3.818,4.8532l0,0.6959c0,0.6341 -0.5068,1.145 -1.1358,1.145c-0.6291,0 -1.1358,-0.5109 -1.1358,-1.145l0,-0.6959c-2.1842,-0.5197 -3.818,-2.4927 -3.818,-4.8532c0,-0.6342 0.5067,-1.1451 1.1358,-1.1451c0.629,0 1.1358,0.5109 1.1358,1.1451c0,1.4885 1.2057,2.7041 2.6822,2.7041c1.4765,0 2.6822,-1.2156 2.6822,-2.7041c0,-1.4886 -1.2057,-2.7041 -2.6822,-2.7041c-2.7259,0 -4.9538,-2.2372 -4.9538,-4.9941c0,-2.3606 1.6338,-4.3336 3.818,-4.8533l0,-0.6958c0,-0.6342 0.5067,-1.1451 1.1358,-1.1451c0.629,0 1.1358,0.5109 1.1358,1.1451l0,0.6958c2.1842,0.5197 3.818,2.4927 3.818,4.8533c0,0.6341 -0.5068,1.145 -1.1358,1.145c-0.6291,0 -1.1358,-0.5109 -1.1358,-1.145c0,-1.4886 -1.2057,-2.7041 -2.6822,-2.7041c-1.4765,0 -2.6822,1.2155 -2.6822,2.7041z"/>
 </g>
</svg>

<svg width="83" height="87" viewBox="0 0 83 87" fill="none" xmlns="http://www.w3.org/2000/svg">
<path d="M81.7059 9.69778H58.1864V4.91502C58.1864 2.29903 56.072 0.16748 53.4772 0.16748H29.5383C26.9434 0.16748 24.8291 2.29903 24.8291 4.91502V9.69778H1.29204C0.662987 9.69778 0.15625 10.2087 0.15625 10.8428V30.1589C0.15625 30.6521 0.470776 31.0925 0.933829 31.2423L3.05688 31.9557V68.6852C3.05688 69.3194 3.56362 69.8303 4.19267 69.8303H35.5405V77.0705C35.5405 80.629 38.4061 83.518 41.9358 83.518C45.4655 83.518 48.3312 80.629 48.3312 77.0705V69.8303H78.7966C79.4256 69.8303 79.9324 69.3194 79.9324 68.6852V31.9557L82.0554 31.2423C82.5185 31.0837 82.833 30.6521 82.833 30.1589V10.8428C82.833 10.2087 82.3263 9.69778 81.6972 9.69778H81.7059ZM27.0832 4.91502C27.0832 3.55858 28.1753 2.45757 29.5208 2.45757H53.4597C54.8052 2.45757 55.8973 3.55858 55.8973 4.91502V9.69778H27.0832V4.91502ZM5.32846 67.5314V32.7132L19.9452 37.6105C19.6481 43.5559 21.7188 49.5894 26.2095 54.1167C29.4247 57.3581 33.4698 59.4456 37.8645 60.1855V64.7569H36.6675C36.0385 64.7569 35.5317 65.2677 35.5317 65.9019V67.5226H5.32846V67.5314ZM55.1721 52.4961C51.5201 56.1778 46.6625 58.2125 41.4903 58.2125C36.3268 58.2125 31.4691 56.1866 27.8171 52.5049C20.2772 44.9035 20.2772 32.537 27.8171 24.9269C31.4691 21.2451 36.3268 19.2105 41.499 19.2105C46.6625 19.2105 51.5201 21.2363 55.1721 24.9181C62.712 32.5194 62.7033 44.8859 55.1721 52.4961ZM43.7356 60.4938V64.7569H40.136V60.4938H41.4466C41.4466 60.4938 41.4728 60.4938 41.4815 60.4938C41.4815 60.4938 41.5077 60.4938 41.5165 60.4938H43.7269H43.7356ZM46.0596 77.0529C46.0596 79.343 44.2074 81.2103 41.9358 81.2103C39.6642 81.2103 37.812 79.343 37.812 77.0529V67.047H46.0596V77.0529ZM77.6608 67.5226H48.3312V65.9019C48.3312 65.2677 47.8245 64.7569 47.1954 64.7569H46.0072V60.0093C50.0611 59.1461 53.783 57.1291 56.7797 54.1079C61.2705 49.5806 63.3411 43.5383 63.0528 37.6017L77.6695 32.7044V67.5226H77.6608ZM80.5614 29.3133L62.8081 35.2675C62.1179 30.8811 60.1259 26.6621 56.7797 23.2886C52.6996 19.1752 47.274 16.9116 41.5077 16.9116C35.7327 16.9116 30.3071 19.184 26.227 23.2974C22.8808 26.6709 20.8888 30.8811 20.1986 35.2675L2.43657 29.3133V11.9879H80.5701V29.3309L80.5614 29.3133ZM30.1673 27.2786C27.1444 30.3262 25.4756 34.3867 25.4756 38.7027C25.4756 43.0186 27.1444 47.0703 30.1673 50.1267C33.1903 53.1743 37.2179 54.8566 41.499 54.8566C45.78 54.8566 49.799 53.1743 52.8307 50.1267C59.0775 43.8289 59.0775 33.5852 52.8307 27.2874C46.5838 20.9897 36.4141 20.9897 30.176 27.2874L30.1673 27.2786ZM51.2231 48.506C48.6283 51.122 45.1685 52.5665 41.499 52.5665C37.8295 52.5665 34.3697 51.122 31.7749 48.506C29.18 45.89 27.7472 42.402 27.7472 38.7027C27.7472 35.0033 29.18 31.5153 31.7749 28.8993C34.4571 26.1952 37.978 24.8476 41.499 24.8476C45.0199 24.8476 48.5409 26.1952 51.2231 28.8993C56.5875 34.3075 56.5875 43.0979 51.2231 48.506ZM38.8168 34.8536C38.8168 36.3421 40.0225 37.5576 41.499 37.5576C44.2249 37.5576 46.4528 39.7949 46.4528 42.5518C46.4528 44.9123 44.819 46.8853 42.6348 47.405V48.1009C42.6348 48.735 42.128 49.2459 41.499 49.2459C40.8699 49.2459 40.3632 48.735 40.3632 48.1009V47.405C38.179 46.8853 36.5452 44.9123 36.5452 42.5518C36.5452 41.9176 37.0519 41.4067 37.681 41.4067C38.31 41.4067 38.8168 41.9176 38.8168 42.5518C38.8168 44.0403 40.0225 45.2559 41.499 45.2559C42.9755 45.2559 44.1812 44.0403 44.1812 42.5518C44.1812 41.0632 42.9755 39.8477 41.499 39.8477C38.7731 39.8477 36.5452 37.6105 36.5452 34.8536C36.5452 32.493 38.179 30.52 40.3632 30.0003V29.3045C40.3632 28.6703 40.8699 28.1594 41.499 28.1594C42.128 28.1594 42.6348 28.6703 42.6348 29.3045V30.0003C44.819 30.52 46.4528 32.493 46.4528 34.8536C46.4528 35.4877 45.946 35.9986 45.317 35.9986C44.6879 35.9986 44.1812 35.4877 44.1812 34.8536C44.1812 33.365 42.9755 32.1495 41.499 32.1495C40.0225 32.1495 38.8168 33.365 38.8168 34.8536Z" fill="#0485FE"/>
</svg>
